X: 162
T: No_94_Song_of_a_Medicine_Woman_on_Seeing_that_a_Sick_Person_will_Die.krn
N: Derived from No_94_Song_of_a_Medicine_Woman_on_Seeing_that_a_Sick_Person_will_Die.krn
%%abc-version 2.0
%%abcx-abcm2ps-target-version 5.9.1 (29 Sep 2008)
%%abc-creator hum2abc beta
%%abcx-conversion-date 2019/03/15 08:37:56
%%humdrum-veritas 3597936123
%%humdrum-veritas-data 3126267274
%%linebreak <none>
%%barnumbers 0
L: 1/8
M: 2/4
K: Eb clef=bass
E, [I:setbarnb 1]| 
E,E, !fermata!E,3/A,/ | 
A,F,E,2 | 
E,2B,,2 ||  
[M:3/4]E,E,- E,F, F,E, ||  
[M:2/4]E,E,B,,2 | 
E,E,E,2 | 
E,2B,, z | 
E,E,E,2- | 
E,2B,,2 | 
E,E,E,2 | 
E,E,E,2 | 
z3E, | 
!fermata!E,B, B,A, | 
A,A,F,2 | 
!fermata!E,3/E,/ E,A, | 
A,F,E,2 | 
E,2B,,2 ||  
[M:3/4]E,E,- E,F, F,E, ||  
[M:2/4]E,E,B,,2 | 
E,E,E,2 | 
E,2B,, z | 
E,E,E,2- | 
E,2B,,2 | 
E,E,E,2 | 
E,E, E, z



